
(
"./masterTempoClock.scd".loadRelative;
"./algoKeys.scd".loadRelative;
"./sceneBuilder.scd".loadRelative;
"./masterTempoClock.scd".loadRelative;
"./loopSequencer.scd".loadRelative;
"./chordScenePad.scd".loadRelative;
"./spatializeKeyboard.scd".loadRelative;
"./arpeggiator.scd".loadRelative;
"./PydalSC.scd".loadRelative;
"./PydalSC.scd".loadRelative;
)